austria/municipalities/41707.svg

<?xml version="1.0" encoding="UTF-8"?>
<!DOCTYPE svg PUBLIC "-//W3C//DTD SVG 1.1//EN" "http://www.w3.org/Graphics/SVG/1.1/DTD/svg11.dtd">
<svg xmlns="http://www.w3.org/2000/svg" version="1.1" width="166px" height="207px" style="shape-rendering:geometricPrecision; text-rendering:geometricPrecision; image-rendering:optimizeQuality; fill-rule:evenodd; clip-rule:evenodd" xmlns:xlink="http://www.w3.org/1999/xlink">
<g><path style="opacity:1" fill="#000000" d="M -0.5,-0.5 C 54.8333,-0.5 110.167,-0.5 165.5,-0.5C 165.5,44.1667 165.5,88.8333 165.5,133.5C 160.657,161.881 145.657,183.381 120.5,198C 112.336,201.554 104.002,204.388 95.5,206.5C 86.8333,206.5 78.1667,206.5 69.5,206.5C 29.593,196.928 6.25968,171.928 -0.5,131.5C -0.5,87.5 -0.5,43.5 -0.5,-0.5 Z"/></g>
<g><path style="opacity:1" fill="#fefffe" d="M 3.5,3.5 C 20.9713,7.46307 33.1379,17.7964 40,34.5C 41.1309,61.9736 41.6309,89.4736 41.5,117C 41.3333,141.833 41.1667,166.667 41,191.5C 39.2552,190.044 37.4219,188.711 35.5,187.5C 34.6667,139.17 34.1667,90.8368 34,42.5C 30.1043,25.7727 19.9376,15.106 3.5,10.5C 3.5,8.16667 3.5,5.83333 3.5,3.5 Z"/></g>
<g><path style="opacity:1" fill="#00612a" d="M 13.5,4.5 C 59.3315,3.33515 105.332,3.16848 151.5,4C 137.853,10.3132 128.353,20.4799 123,34.5C 121.698,87.139 121.031,139.806 121,192.5C 109.096,199.893 96.0956,203.226 82,202.5C 70.3613,202.799 59.1946,200.632 48.5,196C 46.9095,194.954 45.4095,193.787 44,192.5C 43.9639,140.475 43.2972,88.4753 42,36.5C 37.5981,21.2662 28.0981,10.5996 13.5,4.5 Z"/></g>
<g><path style="opacity:1" fill="#fefffe" d="M 155.5,3.5 C 157.5,3.5 159.5,3.5 161.5,3.5C 161.5,5.83333 161.5,8.16667 161.5,10.5C 145.421,15.0786 135.254,25.412 131,41.5C 129.749,90.1524 129.082,138.819 129,187.5C 127.255,188.956 125.422,190.289 123.5,191.5C 123.167,167.833 122.833,144.167 122.5,120.5C 122.38,93.4777 122.88,66.4777 124,39.5C 125.633,30.5667 129.633,22.9 136,16.5C 142.135,11.523 148.635,7.18967 155.5,3.5 Z"/></g>
<g><path style="opacity:1" fill="#002b72" d="M 3.5,11.5 C 15.0678,16.0313 23.9012,23.698 30,34.5C 30.6667,37.1667 31.3333,39.8333 32,42.5C 32.6667,89.8333 32.6667,137.167 32,184.5C 29.3723,182.874 27.039,180.874 25,178.5C 24.6667,134.167 24.3333,89.8333 24,45.5C 21.7074,34.0444 15.2074,26.0444 4.5,21.5C 3.51298,18.2317 3.17964,14.8984 3.5,11.5 Z"/></g>
<g><path style="opacity:1" fill="#002b72" d="M 160.5,11.5 C 161.806,14.6868 161.806,18.0202 160.5,21.5C 149.515,25.777 143.015,33.777 141,45.5C 140.667,89.8333 140.333,134.167 140,178.5C 137.146,180.598 134.479,182.931 132,185.5C 131.055,137.147 131.388,88.8139 133,40.5C 135.035,31.4619 139.868,24.2952 147.5,19C 151.928,16.4594 156.262,13.9594 160.5,11.5 Z"/></g>
<g><path style="opacity:1" fill="#fefffe" d="M 3.5,23.5 C 12.0635,26.2284 17.8968,31.8951 21,40.5C 22.1409,63.6268 22.6409,86.7935 22.5,110C 22.3333,131.5 22.1667,153 22,174.5C 19.7632,172.353 17.7632,170.02 16,167.5C 15.6667,128.5 15.3333,89.5 15,50.5C 15.2074,43.1079 12.3741,37.2745 6.5,33C 5.55198,32.5172 4.55198,32.3505 3.5,32.5C 3.5,29.5 3.5,26.5 3.5,23.5 Z"/></g>
<g><path style="opacity:1" fill="#fefffe" d="M 158.5,23.5 C 159.5,23.5 160.5,23.5 161.5,23.5C 161.664,26.1873 161.497,28.854 161,31.5C 154.386,34.7065 150.719,40.0398 150,47.5C 149.667,87.5 149.333,127.5 149,167.5C 147,170.167 145,172.833 143,175.5C 142.333,131.5 142.333,87.5 143,43.5C 145.392,34.6168 150.558,27.9502 158.5,23.5 Z"/></g>
<g><path style="opacity:1" fill="#000000" d="M 93.5,78.5 C 95.0947,74.2166 96.5947,69.8832 98,65.5C 99.5313,50.3646 92.6979,43.5312 77.5,45C 70.1667,47.3333 66.1667,52.3333 65.5,60C 66.1252,63.5438 66.9585,67.0438 68,70.5C 70.0727,74.6455 72.0727,78.6455 74,82.5C 69.828,84.9186 65.828,87.5852 62,90.5C 60.3333,88.5 58.6667,86.5 57,84.5C 56.376,82.5355 56.876,80.8689 58.5,79.5C 51.2895,71.7042 49.1229,62.7042 52,52.5C 55.2977,40.7025 62.7977,33.0359 74.5,29.5C 75.4287,28.3112 75.762,26.9778 75.5,25.5C 80.1667,25.5 84.8333,25.5 89.5,25.5C 89.2865,27.1439 89.6198,28.6439 90.5,30C 109.358,37.2128 116.525,50.7128 112,70.5C 110.981,74.1744 109.148,77.3411 106.5,80C 107.022,80.9503 107.689,81.7836 108.5,82.5C 106.862,85.3041 105.029,87.9708 103,90.5C 98.7529,87.2916 94.2529,84.4583 89.5,82C 90.5323,80.3732 91.8656,79.2066 93.5,78.5 Z"/></g>
<g><path style="opacity:1" fill="#fea700" d="M 77.5,27.5 C 80.8333,27.5 84.1667,27.5 87.5,27.5C 87.5,29.5 87.5,31.5 87.5,33.5C 84.1667,33.5 80.8333,33.5 77.5,33.5C 77.5,31.5 77.5,29.5 77.5,27.5 Z"/></g>
<g><path style="opacity:1" fill="#fea700" d="M 73.5,31.5 C 75.1765,32.1834 75.8432,33.5168 75.5,35.5C 80.1667,35.5 84.8333,35.5 89.5,35.5C 89.3433,34.1266 89.51,32.7932 90,31.5C 110.061,39.9539 116.061,54.2872 108,74.5C 105.276,79.296 101.943,79.6294 98,75.5C 99.6925,69.0041 100.359,62.3374 100,55.5C 97.9567,49.7859 94.1233,45.6192 88.5,43C 75.3977,40.5483 67.0644,45.715 63.5,58.5C 63.9857,63.8813 65.319,69.048 67.5,74C 66.0208,76.3362 63.8541,77.8362 61,78.5C 54.195,72.4242 51.5283,64.7576 53,55.5C 55.4078,43.6007 62.2411,35.6007 73.5,31.5 Z"/></g>
<g><path style="opacity:1" fill="#002b72" d="M 160.5,33.5 C 161.664,67.9976 161.831,102.664 161,137.5C 159.374,146.049 156.374,154.049 152,161.5C 151.333,123.167 151.333,84.8333 152,46.5C 152.854,40.7722 155.687,36.4389 160.5,33.5 Z"/></g>
<g><path style="opacity:1" fill="#002b72" d="M 3.5,34.5 C 8.77718,36.671 11.9439,40.671 13,46.5C 13.6667,84.8333 13.6667,123.167 13,161.5C 8.61738,153.354 5.61738,144.687 4,135.5C 3.50002,101.835 3.33335,68.1683 3.5,34.5 Z"/></g>
<g><path style="opacity:1" fill="#000000" d="M 68.5,36.5 C 70.7012,36.8584 72.0345,38.1917 72.5,40.5C 69.9997,46.1511 67.333,46.4844 64.5,41.5C 65.8569,39.8144 67.1902,38.1477 68.5,36.5 Z"/></g>
<g><path style="opacity:1" fill="#000000" d="M 94.5,36.5 C 96.8783,37.6924 98.8783,39.359 100.5,41.5C 99.5197,42.9814 98.353,44.3147 97,45.5C 95.2201,43.7071 93.3868,42.0404 91.5,40.5C 92.5244,39.1482 93.5244,37.8149 94.5,36.5 Z"/></g>
<g><path style="opacity:1" fill="#00612a" d="M 68.5,39.5 C 70.6477,39.3894 70.981,40.056 69.5,41.5C 68.635,42.5827 67.635,42.7494 66.5,42C 67.3805,41.2917 68.0472,40.4584 68.5,39.5 Z"/></g>
<g><path style="opacity:1" fill="#00612a" d="M 94.5,39.5 C 95.9953,39.4148 96.9953,40.0815 97.5,41.5C 95.6043,42.6394 94.6043,41.9728 94.5,39.5 Z"/></g>
<g><path style="opacity:1" fill="#000000" d="M 60.5,46.5 C 62.4233,46.795 64.0899,47.6283 65.5,49C 64,51.1667 62.5,53.3333 61,55.5C 59.5905,54.2125 58.0905,53.0458 56.5,52C 57.965,50.2258 59.2983,48.3925 60.5,46.5 Z"/></g>
<g><path style="opacity:1" fill="#000000" d="M 102.5,46.5 C 105.068,47.5737 106.735,49.5737 107.5,52.5C 106.086,53.624 104.586,54.624 103,55.5C 101.833,53.1667 100.667,50.8333 99.5,48.5C 100.602,47.8243 101.602,47.1577 102.5,46.5 Z"/></g>
<g><path style="opacity:1" fill="#00612a" d="M 60.5,48.5 C 62.8519,49.5426 63.0185,50.8759 61,52.5C 59.4894,51.436 59.3228,50.1026 60.5,48.5 Z"/></g>
<g><path style="opacity:1" fill="#00612a" d="M 102.5,48.5 C 104.273,49.3143 104.773,50.6476 104,52.5C 102.812,51.4366 102.312,50.1033 102.5,48.5 Z"/></g>
<g><path style="opacity:1" fill="#000000" d="M 56.5,59.5 C 58.1667,59.5 59.8333,59.5 61.5,59.5C 61.5,62.1667 61.5,64.8333 61.5,67.5C 59.8333,67.5 58.1667,67.5 56.5,67.5C 56.5,64.8333 56.5,62.1667 56.5,59.5 Z"/></g>
<g><path style="opacity:1" fill="#000000" d="M 102.5,59.5 C 104.5,59.5 106.5,59.5 108.5,59.5C 108.5,62.1667 108.5,64.8333 108.5,67.5C 106.5,67.5 104.5,67.5 102.5,67.5C 102.5,64.8333 102.5,62.1667 102.5,59.5 Z"/></g>
<g><path style="opacity:1" fill="#00612a" d="M 57.5,61.5 C 58.5862,61.62 59.2528,62.2867 59.5,63.5C 59.1667,64.1667 58.8333,64.8333 58.5,65.5C 57.5713,64.3112 57.238,62.9778 57.5,61.5 Z"/></g>
<g><path style="opacity:1" fill="#00612a" d="M 104.5,61.5 C 105.586,61.62 106.253,62.2867 106.5,63.5C 106.167,64.1667 105.833,64.8333 105.5,65.5C 104.571,64.3112 104.238,62.9778 104.5,61.5 Z"/></g>
<g><path style="opacity:1" fill="#fea700" d="M 67.5,76.5 C 69.3886,77.4009 70.7219,78.9009 71.5,81C 68.45,83.2799 65.2834,85.4466 62,87.5C 60.9542,85.9095 59.7875,84.4095 58.5,83C 61.5672,80.8118 64.5672,78.6452 67.5,76.5 Z"/></g>
<g><path style="opacity:1" fill="#fea700" d="M 93.5,78.5 C 94.7348,78.2786 95.7348,77.6119 96.5,76.5C 99.6985,78.8635 103.032,81.0302 106.5,83C 104.951,84.214 103.785,85.714 103,87.5C 99.7515,85.7929 96.5849,83.9596 93.5,82C 92.8288,81.0138 92.8288,79.8471 93.5,78.5 Z"/></g>
<g><path style="opacity:1" fill="#000000" d="M 77.5,114.5 C 84.1777,114.789 90.8444,115.289 97.5,116C 109.703,118.719 114.37,126.219 111.5,138.5C 114.89,151.267 110.224,158.433 97.5,160C 84.3463,162.378 71.3463,161.711 58.5,158C 55.3374,156.52 53.504,154.02 53,150.5C 52.0867,141.424 52.42,132.424 54,123.5C 55.9384,120.894 58.4384,119.061 61.5,118C 66.8408,116.248 72.1742,115.081 77.5,114.5 Z"/></g>
<g><path style="opacity:1" fill="#fefffe" d="M 76.5,116.5 C 87.6755,115.4 98.0088,117.734 107.5,123.5C 108.614,124.723 108.781,126.056 108,127.5C 100.778,134.355 92.1117,137.689 82,137.5C 73.4338,137.2 65.6005,134.7 58.5,130C 54.5387,125.144 55.8721,121.811 62.5,120C 67.1838,118.347 71.8504,117.181 76.5,116.5 Z"/></g>
<g><path style="opacity:1" fill="#000000" d="M 71.5,119.5 C 81.3155,118.927 90.9822,119.76 100.5,122C 105.598,123.794 106.264,126.294 102.5,129.5C 99.9504,130.942 97.2837,132.108 94.5,133C 86.1667,133.667 77.8333,133.667 69.5,133C 65.0743,132.129 61.741,129.796 59.5,126C 60.0465,125.075 60.7132,124.242 61.5,123.5C 64.8646,121.941 68.1979,120.608 71.5,119.5 Z"/></g>
<g><path style="opacity:1" fill="#fefffe" d="M 70.5,121.5 C 72.6516,122.077 72.985,123.244 71.5,125C 68.6484,125.269 65.9818,126.103 63.5,127.5C 62.6919,127.192 62.0253,126.692 61.5,126C 64.4375,124.199 67.4375,122.699 70.5,121.5 Z"/></g>
<g><path style="opacity:1" fill="#fefffe" d="M 74.5,121.5 C 79.8333,121.5 85.1667,121.5 90.5,121.5C 90.5,122.5 90.5,123.5 90.5,124.5C 85.158,123.239 79.8247,123.239 74.5,124.5C 74.5,123.5 74.5,122.5 74.5,121.5 Z"/></g>
<g><path style="opacity:1" fill="#fefffe" d="M 91.5,121.5 C 95.8261,121.832 99.4927,123.498 102.5,126.5C 102,126.833 101.5,127.167 101,127.5C 98.7522,126.045 96.2522,125.212 93.5,125C 92.0267,124.29 91.3601,123.124 91.5,121.5 Z"/></g>
<g><path style="opacity:1" fill="#002b72" d="M 76.5,125.5 C 84.4979,124.967 92.1645,126.134 99.5,129C 98.1667,129.667 96.8333,130.333 95.5,131C 86.8333,131.667 78.1667,131.667 69.5,131C 67.7536,130.529 66.087,129.862 64.5,129C 64.8333,128.667 65.1667,128.333 65.5,128C 69.3474,127.367 73.014,126.533 76.5,125.5 Z"/></g>
<g><path style="opacity:1" fill="#fefffe" d="M 54.5,128.5 C 57.5641,131.883 61.2308,134.55 65.5,136.5C 66.4287,137.689 66.762,139.022 66.5,140.5C 58.7723,140.106 54.7723,136.106 54.5,128.5 Z"/></g>
<g><path style="opacity:1" fill="#fefffe" d="M 108.5,129.5 C 109.754,131.357 109.754,133.357 108.5,135.5C 105.441,138.53 101.774,140.197 97.5,140.5C 97.238,139.022 97.5713,137.689 98.5,136.5C 102.601,135.128 105.934,132.795 108.5,129.5 Z"/></g>
<g><path style="opacity:1" fill="#fefffe" d="M -0.5,131.5 C 6.25968,171.928 29.593,196.928 69.5,206.5C 46.1667,206.5 22.8333,206.5 -0.5,206.5C -0.5,181.5 -0.5,156.5 -0.5,131.5 Z"/></g>
<g><path style="opacity:1" fill="#fefffe" d="M 165.5,133.5 C 165.5,157.833 165.5,182.167 165.5,206.5C 142.167,206.5 118.833,206.5 95.5,206.5C 104.002,204.388 112.336,201.554 120.5,198C 145.657,183.381 160.657,161.881 165.5,133.5 Z"/></g>
<g><path style="opacity:1" fill="#fefffe" d="M 54.5,137.5 C 56.5106,138.417 57.5106,140.083 57.5,142.5C 57.1667,143.833 56.8333,145.167 56.5,146.5C 55.914,146.291 55.414,145.957 55,145.5C 54.5026,142.854 54.3359,140.187 54.5,137.5 Z"/></g>
<g><path style="opacity:1" fill="#fefffe" d="M 68.5,137.5 C 77.5,138.833 86.5,138.833 95.5,137.5C 95.5,139.167 95.5,140.833 95.5,142.5C 90.9804,142.97 86.4804,143.637 82,144.5C 77.5196,143.637 73.0196,142.97 68.5,142.5C 68.5,140.833 68.5,139.167 68.5,137.5 Z"/></g>
<g><path style="opacity:1" fill="#fefffe" d="M 108.5,137.5 C 109.634,139.966 109.801,142.633 109,145.5C 108.586,145.957 108.086,146.291 107.5,146.5C 106.064,143.232 106.397,140.232 108.5,137.5 Z"/></g>
<g><path style="opacity:1" fill="#fefffe" d="M 59.5,140.5 C 66.3495,144.045 73.6829,145.711 81.5,145.5C 81.5,147.5 81.5,149.5 81.5,151.5C 74.399,150.989 67.399,149.823 60.5,148C 59.565,145.619 59.2317,143.119 59.5,140.5 Z"/></g>
<g><path style="opacity:1" fill="#fefffe" d="M 103.5,140.5 C 104.629,142.628 104.796,144.961 104,147.5C 102.933,148.191 101.766,148.691 100.5,149C 95.1758,149.983 89.8424,150.816 84.5,151.5C 83.5344,149.604 83.2011,147.604 83.5,145.5C 90.7917,145.847 97.4583,144.181 103.5,140.5 Z"/></g>
<g><path style="opacity:1" fill="#fefffe" d="M 54.5,147.5 C 57.7961,149.721 61.4627,150.887 65.5,151C 66.4231,153.041 66.7564,155.208 66.5,157.5C 59.1185,158.113 55.1185,154.779 54.5,147.5 Z"/></g>
<g><path style="opacity:1" fill="#fefffe" d="M 108.5,147.5 C 109.886,149.938 109.553,152.271 107.5,154.5C 104.479,156.423 101.146,157.423 97.5,157.5C 97.2011,155.396 97.5344,153.396 98.5,151.5C 102.273,151.028 105.607,149.695 108.5,147.5 Z"/></g>
<g><path style="opacity:1" fill="#fefffe" d="M 68.5,152.5 C 77.5,152.5 86.5,152.5 95.5,152.5C 95.5,154.5 95.5,156.5 95.5,158.5C 86.507,159.801 77.507,159.801 68.5,158.5C 68.5,156.5 68.5,154.5 68.5,152.5 Z"/></g>
</svg>

<svg xmlns="http://www.w3.org/2000/svg" width="166" height="207" style="shape-rendering:geometricPrecision;text-rendering:geometricPrecision;image-rendering:optimizeQuality;fill-rule:evenodd;clip-rule:evenodd"><path style="opacity:1" d="M-.5-.5h166v134c-4.843 28.381-19.843 49.881-45 64.5a157.946 157.946 0 0 1-25 8.5h-26c-39.907-9.572-63.24-34.572-70-75V-.5z"/><path style="opacity:1" fill="#fefffe" d="M3.5 3.5c17.471 3.963 29.638 14.296 36.5 31 1.13 27.474 1.63 54.974 1.5 82.5l-.5 74.5a51.054 51.054 0 0 0-5.5-4c-.833-48.33-1.333-96.663-1.5-145-3.896-16.727-14.062-27.394-30.5-32v-7z"/><path style="opacity:1" fill="#00612a" d="M13.5 4.5a3178.257 3178.257 0 0 1 138-.5c-13.647 6.313-23.147 16.48-28.5 30.5a6545.302 6545.302 0 0 0-2 158c-11.904 7.393-24.904 10.726-39 10-11.639.299-22.805-1.868-33.5-6.5a36.005 36.005 0 0 1-4.5-3.5 6431.053 6431.053 0 0 0-2-156c-4.402-15.234-13.902-25.9-28.5-32z"/><path style="opacity:1" fill="#fefffe" d="M155.5 3.5h6v7c-16.079 4.579-26.246 14.912-30.5 31a6078.023 6078.023 0 0 0-2 146 51.064 51.064 0 0 1-5.5 4l-1-71c-.12-27.022.38-54.022 1.5-81 1.633-8.933 5.633-16.6 12-23a124.31 124.31 0 0 1 19.5-13z"/><path style="opacity:1" fill="#002b72" d="M3.5 11.5c11.568 4.531 20.401 12.198 26.5 23l2 8c.667 47.333.667 94.667 0 142a29.97 29.97 0 0 1-7-6l-1-133c-2.293-11.456-8.793-19.456-19.5-24a25.871 25.871 0 0 1-1-10zM160.5 11.5c1.306 3.187 1.306 6.52 0 10-10.985 4.277-17.485 12.277-19.5 24l-1 133a62.744 62.744 0 0 0-8 7 2741.228 2741.228 0 0 1 1-145c2.035-9.038 6.868-16.205 14.5-21.5 4.428-2.54 8.762-5.04 13-7.5z"/><path style="opacity:1" fill="#fefffe" d="M3.5 23.5c8.563 2.728 14.397 8.395 17.5 17 1.14 23.127 1.64 46.293 1.5 69.5l-.5 64.5a47.152 47.152 0 0 1-6-7l-1-117c.207-7.392-2.626-13.225-8.5-17.5a4.932 4.932 0 0 0-3-.5v-9zM158.5 23.5h3a32.462 32.462 0 0 1-.5 8c-6.614 3.206-10.281 8.54-11 16l-1 120-6 8c-.667-44-.667-88 0-132 2.392-8.883 7.558-15.55 15.5-20z"/><path style="opacity:1" d="M93.5 78.5a298.128 298.128 0 0 0 4.5-13c1.531-15.135-5.302-21.969-20.5-20.5-7.333 2.333-11.333 7.333-12 15A91.394 91.394 0 0 0 68 70.5l6 12a114.964 114.964 0 0 0-12 8l-5-6c-.624-1.965-.124-3.631 1.5-5-7.21-7.796-9.377-16.796-6.5-27 3.298-11.797 10.798-19.464 22.5-23 .929-1.189 1.262-2.522 1-4h14c-.213 1.644.12 3.144 1 4.5 18.858 7.213 26.025 20.713 21.5 40.5-1.019 3.674-2.852 6.841-5.5 9.5a9.26 9.26 0 0 0 2 2.5 65.823 65.823 0 0 1-5.5 8A93.985 93.985 0 0 0 89.5 82c1.032-1.627 2.366-2.793 4-3.5z"/><path style="opacity:1" fill="#fea700" d="M77.5 27.5h10v6h-10v-6z"/><path style="opacity:1" fill="#fea700" d="M73.5 31.5c1.677.683 2.343 2.017 2 4h14a8.434 8.434 0 0 1 .5-4c20.061 8.454 26.061 22.787 18 43-2.724 4.796-6.057 5.13-10 1 1.692-6.496 2.359-13.163 2-20-2.043-5.714-5.877-9.88-11.5-12.5-13.102-2.452-21.436 2.715-25 15.5a49.171 49.171 0 0 0 4 15.5c-1.48 2.336-3.646 3.836-6.5 4.5-6.805-6.076-9.472-13.742-8-23 2.408-11.9 9.241-19.9 20.5-24z"/><path style="opacity:1" fill="#002b72" d="M160.5 33.5a1806.139 1806.139 0 0 1 .5 104c-1.626 8.549-4.626 16.549-9 24a3304.848 3304.848 0 0 1 0-115c.854-5.728 3.687-10.061 8.5-13zM3.5 34.5c5.277 2.171 8.444 6.171 9.5 12 .667 38.333.667 76.667 0 115-4.383-8.146-7.383-16.813-9-26-.5-33.665-.667-67.332-.5-101z"/><path style="opacity:1" d="M68.5 36.5c2.201.358 3.534 1.692 4 4-2.5 5.651-5.167 5.984-8 1 1.357-1.686 2.69-3.352 4-5zM94.5 36.5a16.989 16.989 0 0 1 6 5 19.894 19.894 0 0 1-3.5 4 71.22 71.22 0 0 0-5.5-5 493.061 493.061 0 0 0 3-4z"/><path style="opacity:1" fill="#00612a" d="M68.5 39.5c2.148-.11 2.481.556 1 2-.865 1.083-1.865 1.25-3 .5.88-.708 1.547-1.542 2-2.5zM94.5 39.5c1.495-.085 2.495.581 3 2-1.896 1.14-2.896.473-3-2z"/><path style="opacity:1" d="M60.5 46.5c1.923.295 3.59 1.128 5 2.5L61 55.5a35.94 35.94 0 0 0-4.5-3.5 54.619 54.619 0 0 0 4-5.5zM102.5 46.5c2.568 1.074 4.235 3.074 5 6a32.367 32.367 0 0 1-4.5 3l-3.5-7a44.093 44.093 0 0 0 3-2z"/><path style="opacity:1" fill="#00612a" d="M60.5 48.5c2.352 1.043 2.519 2.376.5 4-1.51-1.064-1.677-2.397-.5-4zM102.5 48.5c1.773.814 2.273 2.148 1.5 4-1.188-1.063-1.688-2.397-1.5-4z"/><path style="opacity:1" d="M56.5 59.5h5v8h-5v-8zM102.5 59.5h6v8h-6v-8z"/><path style="opacity:1" fill="#00612a" d="M57.5 61.5c1.086.12 1.753.787 2 2l-1 2c-.929-1.189-1.262-2.522-1-4zM104.5 61.5c1.086.12 1.753.787 2 2l-1 2c-.929-1.189-1.262-2.522-1-4z"/><path style="opacity:1" fill="#fea700" d="M67.5 76.5c1.889.9 3.222 2.4 4 4.5a138.628 138.628 0 0 1-9.5 6.5 35.94 35.94 0 0 0-3.5-4.5 937.25 937.25 0 0 0 9-6.5zM93.5 78.5c1.235-.221 2.235-.888 3-2a99.502 99.502 0 0 0 10 6.5 11.532 11.532 0 0 0-3.5 4.5 133.727 133.727 0 0 1-9.5-5.5c-.671-.986-.671-2.153 0-3.5z"/><path style="opacity:1" d="M77.5 114.5c6.678.289 13.344.789 20 1.5 12.203 2.719 16.87 10.219 14 22.5 3.39 12.767-1.276 19.933-14 21.5-13.154 2.378-26.154 1.711-39-2-3.163-1.48-4.996-3.98-5.5-7.5a97.91 97.91 0 0 1 1-27c1.938-2.606 4.438-4.439 7.5-5.5 5.34-1.752 10.674-2.919 16-3.5z"/><path style="opacity:1" fill="#fefffe" d="M76.5 116.5c11.175-1.1 21.509 1.234 31 7 1.114 1.223 1.281 2.556.5 4-7.222 6.855-15.888 10.189-26 10-8.566-.3-16.4-2.8-23.5-7.5-3.961-4.856-2.628-8.189 4-10 4.684-1.653 9.35-2.819 14-3.5z"/><path style="opacity:1" d="M71.5 119.5c9.816-.573 19.482.26 29 2.5 5.098 1.794 5.764 4.294 2 7.5a42.635 42.635 0 0 1-8 3.5c-8.333.667-16.667.667-25 0-4.426-.871-7.759-3.204-10-7a11.371 11.371 0 0 1 2-2.5 97.809 97.809 0 0 1 10-4z"/><path style="opacity:1" fill="#fefffe" d="M70.5 121.5c2.152.577 2.485 1.744 1 3.5a19.95 19.95 0 0 0-8 2.5 4.458 4.458 0 0 1-2-1.5 56.889 56.889 0 0 1 9-4.5zM74.5 121.5h16v3c-5.342-1.261-10.675-1.261-16 0v-3zM91.5 121.5c4.326.332 7.993 1.998 11 5l-1.5 1c-2.248-1.455-4.748-2.288-7.5-2.5-1.473-.71-2.14-1.876-2-3.5z"/><path style="opacity:1" fill="#002b72" d="M76.5 125.5c7.998-.533 15.665.634 23 3.5l-4 2c-8.667.667-17.333.667-26 0a22.973 22.973 0 0 1-5-2l1-1a90.28 90.28 0 0 0 11-2.5z"/><path style="opacity:1" fill="#fefffe" d="M54.5 128.5c3.064 3.383 6.73 6.05 11 8 .929 1.189 1.262 2.522 1 4-7.728-.394-11.728-4.394-12-12zM108.5 129.5c1.254 1.857 1.254 3.857 0 6-3.059 3.03-6.726 4.697-11 5-.262-1.478.071-2.811 1-4 4.101-1.372 7.434-3.705 10-7zM-.5 131.5c6.76 40.428 30.093 65.428 70 75h-70v-75zM165.5 133.5v73h-70a157.946 157.946 0 0 0 25-8.5c25.157-14.619 40.157-36.119 45-64.5zM54.5 137.5c2.01.917 3.01 2.583 3 5l-1 4a3.647 3.647 0 0 1-1.5-1 32.438 32.438 0 0 1-.5-8zM68.5 137.5c9 1.333 18 1.333 27 0v5c-4.52.47-9.02 1.137-13.5 2-4.48-.863-8.98-1.53-13.5-2v-5zM108.5 137.5c1.134 2.466 1.301 5.133.5 8a3.647 3.647 0 0 1-1.5 1c-1.436-3.268-1.103-6.268 1-9zM59.5 140.5c6.85 3.545 14.183 5.211 22 5v6a114.071 114.071 0 0 1-21-3.5c-.935-2.381-1.268-4.881-1-7.5z"/><path style="opacity:1" fill="#fefffe" d="M103.5 140.5c1.129 2.128 1.296 4.461.5 7a11.333 11.333 0 0 1-3.5 1.5 293.178 293.178 0 0 1-16 2.5 9.864 9.864 0 0 1-1-6c7.292.347 13.958-1.319 20-5zM54.5 147.5c3.296 2.221 6.963 3.387 11 3.5.923 2.041 1.256 4.208 1 6.5-7.382.613-11.382-2.721-12-10zM108.5 147.5c1.386 2.438 1.053 4.771-1 7-3.021 1.923-6.354 2.923-10 3a9.864 9.864 0 0 1 1-6c3.773-.472 7.107-1.805 10-4zM68.5 152.5h27v6a93.878 93.878 0 0 1-27 0v-6z"/></svg>
